X:126
T: Changnian shi
N: C1620
O: China, nan Zhejiang, Pucheng
S: III, 627]
R: Xiaodiao, Mengjiangn diao. Changgong ku]
M: 2/4
L: 1/8
K: G
AA3 | Gd3 | EG3 | d4
AA3 | GE3 | AE3 | D4
EGAA | GAGE
EBAG | GEAE3 | D4

